src/components/content/Icon/distinctive/textiles.svg

<svg width="100" height="100" viewBox="0 0 100 100" fill="none" xmlns="http://www.w3.org/2000/svg">
<path d="M74.4898 37.7073C74.4898 37.7073 74.4866 37.7 74.4846 37.6958L74.4887 37.6635L74.4241 37.5739C74.4189 37.5635 74.4137 37.5521 74.4085 37.5416C74.4054 37.5354 74.4023 37.5302 74.4002 37.5239C74.3981 37.5177 74.4002 37.5239 74.4002 37.5229C74.4002 37.5218 74.396 37.5156 74.3939 37.5114C74.3689 37.4625 74.3439 37.4135 74.32 37.3687V37.3635C74.3189 37.3614 74.3168 37.3583 74.3158 37.3562C70.9887 30.8979 65.3616 26.101 58.4502 23.8396C51.4783 21.5583 44.0356 22.1281 37.4929 25.4437C36.5533 25.9198 35.6346 26.4541 34.7564 27.0333L34.7533 27.0281C34.7283 27.0437 34.7054 27.0604 34.6793 27.0771L34.6293 27.1093C34.6137 27.1198 34.5981 27.1312 34.5825 27.1416C34.5804 27.1427 34.5783 27.1448 34.5762 27.1458C34.5741 27.1469 34.5721 27.1489 34.5689 27.151H34.5668C34.5668 27.151 34.5658 27.1531 34.5648 27.1531C34.4491 27.2312 34.3335 27.3125 34.22 27.3937C34.2179 27.3948 34.2168 27.3958 34.2148 27.3979C34.2033 27.4052 34.1929 27.4135 34.1846 27.4187C34.1835 27.4187 34.1825 27.4208 34.1814 27.4208C34.1814 27.4208 34.1804 27.4208 34.1793 27.4218C28.8221 31.1541 24.9658 36.7083 23.32 43.0625C21.6592 49.4762 22.3755 56.2743 25.3366 62.201C25.3554 62.2396 25.3731 62.276 25.3929 62.3146C25.3991 62.3281 25.4054 62.3406 25.4116 62.3541L25.7377 62.1896L25.4127 62.3541C27.8169 67.0989 31.4575 70.9562 35.9356 73.5896C35.9075 73.6354 35.8866 73.6864 35.8814 73.7437C35.6273 76.1771 37.3991 78.1646 38.995 79.1271C41.3648 80.5573 44.6064 80.8937 48.6273 80.125C48.8564 80.0812 49.145 80.0083 49.4804 79.925C50.72 79.6146 52.7939 79.0948 53.7543 79.675C54.0075 79.8281 54.1679 80.0521 54.2418 80.3604C54.3127 80.6521 54.2606 81.0073 54.095 81.3614C53.8887 81.801 53.5856 82.2177 53.2627 82.5031C50.9835 84.5239 48.1387 85.7333 44.8085 86.0968C41.8668 86.4177 38.6439 86.0489 35.4898 85.0312C30.2721 83.3468 26.7273 80.9468 25.2366 78.0896C22.6846 73.2271 22.4293 68.3281 22.2418 64.7468C22.1075 62.4968 21.9918 60.5531 21.4669 58.9333C20.87 57.0906 19.8127 55.9291 18.1408 55.276C16.371 54.4802 14.0752 54.5239 11.8366 55.3979C7.85435 56.9958 5.33873 60.9437 5.31477 60.9833C5.20956 61.1552 5.26268 61.3791 5.43352 61.4854C5.60539 61.5906 5.82935 61.5375 5.9356 61.3656C5.95852 61.3281 8.34289 57.5854 12.1054 56.076C14.1627 55.2729 16.2564 55.225 17.8502 55.9448L17.8679 55.9521C21.0606 57.1927 21.2512 60.3802 21.5148 64.7906C21.7054 68.4343 21.9658 73.426 24.5919 78.4281C26.195 81.501 29.7866 83.9562 35.2668 85.726C37.7543 86.5291 40.2856 86.9396 42.7002 86.9396C43.4418 86.9396 44.1731 86.901 44.8887 86.8229C48.3721 86.4427 51.3523 85.1729 53.7471 83.05C54.1418 82.7 54.5096 82.1979 54.7554 81.6718C54.9221 81.3156 55.0919 80.7698 54.9502 80.1896C54.8283 79.6896 54.5533 79.3073 54.1304 79.0521C52.9096 78.3146 50.7387 78.8583 49.3023 79.2187C48.9783 79.3 48.6981 79.3698 48.4898 79.4104C43.7075 80.3239 40.8918 79.4218 39.371 78.5041C37.3273 77.2708 36.5137 75.3656 36.595 73.9656C38.1171 74.8047 39.7147 75.4987 41.3668 76.0385C44.1773 76.9583 47.0627 77.4146 49.9366 77.4146C54.1918 77.4146 58.4189 76.4135 62.3241 74.4333C68.8408 71.1302 73.6929 65.4906 75.9835 58.5531C78.27 51.6302 77.7408 44.2281 74.4939 37.7083L74.4898 37.7073ZM75.2398 46.4573C74.9783 49.3156 74.0512 52.3979 72.5575 55.3718C69.6137 61.2333 64.7471 66.3093 59.5398 68.9489C58.3575 69.5479 57.0668 70.0646 55.7033 70.4875C54.271 69.5968 52.7721 68.4906 51.245 67.1969C53.47 66.5594 55.5512 65.7552 57.4366 64.8C62.7741 62.0948 68.021 57.426 71.4741 52.3125C73.2627 49.6635 74.4512 47.0854 75.0064 44.6489C75.1148 44.1729 75.1971 43.7062 75.2554 43.25C75.345 44.2823 75.3419 45.3521 75.2408 46.4573H75.2398ZM27.4116 44.1302V44.1114C27.5273 40.7552 28.1898 37.5646 29.3293 34.8844C29.8523 33.6541 30.47 32.5344 31.1783 31.525C30.2939 33.6125 29.8293 36.1854 29.8304 39.1281C29.8304 39.2843 29.8304 39.4416 29.8346 39.5989C29.8627 41.3385 30.0471 43.1677 30.3846 45.0343C30.4491 45.3958 30.521 45.7698 30.6002 46.1458C30.8575 47.3729 31.1783 48.6073 31.5533 49.8125C32.0817 51.5273 32.7256 53.2044 33.4804 54.8323C33.7366 55.3833 34.0012 55.9208 34.2689 56.4291C34.7606 57.3666 35.2929 58.275 35.8512 59.1291C36.0866 59.4885 36.3356 59.8521 36.5918 60.2083C36.9387 60.6916 37.3085 61.1791 37.6918 61.6583C38.5064 62.675 39.4044 63.6781 40.3585 64.6396C40.7262 65.0104 41.1179 65.3906 41.5241 65.7698C42.5294 66.7031 43.5846 67.5916 44.6616 68.4083C44.9793 68.65 45.3116 68.8948 45.6491 69.1343C47.3689 70.3593 49.1231 71.401 50.8616 72.2302C51.0221 72.3083 51.1825 72.3823 51.3439 72.4562C54.2002 73.7593 56.8814 74.426 59.2575 74.4562C55.0856 75.301 50.1971 74.6271 45.1887 72.4302C44.7398 72.2333 44.2877 72.0229 43.8429 71.8031C42.3653 71.0733 40.9437 70.2352 39.5898 69.2958C38.9925 68.8829 38.4095 68.4497 37.8418 67.9969C37.2554 67.5302 36.6877 67.0437 36.1533 66.5521C35.5658 66.0125 34.9991 65.4479 34.47 64.8739L34.4231 64.8239C34.0231 64.3875 33.6387 63.9396 33.2783 63.4896C32.8023 62.8958 32.3585 62.2864 31.9627 61.6791L31.9335 61.6333L31.8814 61.5521C31.5127 60.9812 31.1585 60.3729 30.8273 59.7437C30.466 59.0542 30.1348 58.3494 29.8346 57.6312C29.5946 57.0561 29.3729 56.4735 29.17 55.8843C28.9387 55.2146 28.7231 54.5104 28.5304 53.7937C28.3419 53.0916 28.1731 52.3656 28.0293 51.6364C27.9085 51.0229 27.8043 50.401 27.7189 49.7864C27.508 48.2838 27.4001 46.7684 27.396 45.251C27.396 44.8719 27.4012 44.4948 27.4137 44.1291L27.4116 44.1302ZM51.645 71.7927C51.4887 71.7208 51.3325 71.6489 51.1752 71.5729C49.4731 70.7614 47.7554 69.7406 46.07 68.5406C45.7431 68.3085 45.4201 68.071 45.1012 67.8281C44.0319 67.0161 43.0035 66.1515 42.02 65.2375C41.621 64.8656 41.2366 64.4927 40.8752 64.1281C39.9387 63.1843 39.0585 62.201 38.2596 61.2041C37.8846 60.7354 37.5221 60.2583 37.1835 59.7854C36.9335 59.4375 36.6908 59.0823 36.4606 58.7312C35.9148 57.8969 35.395 57.0093 34.9137 56.0916C34.6512 55.5937 34.3918 55.0677 34.1408 54.5271C33.6119 53.386 33.1385 52.2201 32.7221 51.0333C32.5523 50.5489 32.3929 50.0677 32.2491 49.5989C31.8809 48.4136 31.5687 47.2116 31.3137 45.9969C31.2366 45.6281 31.1648 45.2614 31.1023 44.9062C30.7721 43.0771 30.5908 41.2885 30.5637 39.5875C30.5606 39.4344 30.5596 39.2823 30.5596 39.1291C30.5585 35.3916 31.3252 32.2885 32.7564 30.0843C32.3439 31.625 32.2835 33.6114 32.5898 35.9916C32.5939 36.0312 32.6002 36.0708 32.6054 36.1104L32.6127 36.1656C32.8325 37.8052 33.221 39.5989 33.7679 41.4968C33.8241 41.6937 33.8835 41.8916 33.9429 42.0896C34.37 43.5062 34.8814 44.9614 35.4616 46.4166C35.5731 46.6968 35.6929 46.9927 35.82 47.2979C36.4898 48.9021 37.2283 50.4718 38.0137 51.9635C38.1918 52.3021 38.3793 52.65 38.5721 52.9979C39.1762 54.0875 39.8075 55.1375 40.4502 56.1187C40.8877 56.7864 41.3606 57.4687 41.8543 58.1448C42.0887 58.4666 42.3262 58.7833 42.5596 59.0875C43.6314 60.4885 44.8012 61.8739 46.0366 63.2031C46.2481 63.4312 46.4648 63.6625 46.6825 63.8896C47.8387 65.0979 49.0398 66.2468 50.2533 67.3031C50.4033 67.4343 50.5533 67.5635 50.7043 67.6927C52.3346 69.0791 53.9356 70.2573 55.4596 71.1937C55.5085 71.2239 55.5564 71.2541 55.6023 71.2812C57.7241 72.5687 59.6189 73.3396 61.2325 73.5833C58.5377 74.0344 55.2471 73.4343 51.6471 71.7916L51.645 71.7927ZM74.295 44.4864C73.7668 46.8021 72.5825 49.3666 70.8689 51.9041C67.4825 56.9198 62.3377 61.4969 57.1064 64.1489C55.1325 65.1489 52.9377 65.9812 50.5835 66.625C49.4366 65.6177 48.3012 64.5291 47.2075 63.3864C47.1262 63.3021 47.046 63.2166 46.9658 63.1323C49.7866 62.2354 52.5366 61.1219 54.9523 59.8979C60.2627 57.2062 65.7606 53.0958 69.6596 48.9021C72.3491 46.0093 74.0221 43.3677 74.6064 41.1531C74.6668 42.1937 74.5637 43.3073 74.295 44.4875V44.4864ZM71.6002 35.2125C69.4835 34.3781 66.3908 34.1614 62.4981 34.6083C56.7908 35.2646 50.196 37.2719 44.8554 39.9781C41.8825 41.4854 38.8158 43.4562 35.9585 45.6927C35.4596 44.4083 35.0158 43.1281 34.6398 41.8802C34.6033 41.7573 34.5668 41.6343 34.5314 41.5114C37.0929 39.1385 39.9137 37.1406 42.7023 35.7271C47.9137 33.0854 54.6252 31.6427 60.6564 31.8635C63.7075 31.976 66.4741 32.5281 68.6564 33.4593C69.7981 33.9468 70.7804 34.5333 71.6012 35.2114L71.6002 35.2125ZM45.1856 40.6291C50.4533 37.9594 56.9564 35.9791 62.5825 35.3333C67.6116 34.7552 71.3002 35.326 73.0148 36.901C72.4971 36.8771 71.8387 36.9385 71.0262 37.0844C69.4033 37.375 67.2377 37.9864 64.5877 38.8989C59.4689 40.6635 53.2377 43.326 47.9189 46.0218C44.8606 47.5729 41.6043 49.3864 38.4793 51.2812C37.77 49.9114 37.1023 48.4791 36.4918 47.0177C36.4043 46.8062 36.321 46.6021 36.2398 46.401C39.1085 44.1385 42.1971 42.1458 45.1866 40.6291H45.1856ZM48.2481 46.6708C53.5387 43.9896 59.7356 41.3416 64.8252 39.5875C67.4023 38.6989 69.5919 38.0812 71.1544 37.801C73.2356 37.4271 73.6564 37.7354 73.7335 37.8312V37.8385L73.7575 37.8823C73.7866 38.0114 73.7637 38.5385 72.2554 39.9739C71.1044 41.0687 69.3127 42.4687 67.0721 44.0229C62.6471 47.0916 56.8481 50.5239 51.5585 53.2041C48.6773 54.6646 45.4731 56.1406 42.2721 57.4823C41.846 56.8916 41.4377 56.3 41.0564 55.7198C40.4241 54.7541 39.8012 53.7187 39.2064 52.6448C39.0731 52.4041 38.9439 52.1646 38.8168 51.9271C41.9387 50.0343 45.1918 48.2208 48.2471 46.6718L48.2481 46.6708ZM51.8887 53.8541C57.2064 51.1593 63.0377 47.7083 67.4877 44.6218C69.7908 43.025 71.5637 41.6385 72.7585 40.5021C73.3564 39.9333 73.7939 39.4385 74.0814 39.0073C74.3398 41.3333 72.5981 44.6698 69.1252 48.4041C65.2814 52.5385 59.8596 56.5916 54.6221 59.2458C52.1471 60.5 49.3137 61.6364 46.4148 62.5385C45.2523 61.2771 44.1502 59.9677 43.1366 58.6437C42.9971 58.4625 42.8564 58.275 42.7158 58.0864C45.8783 56.7562 49.0408 55.2968 51.8887 53.8531V53.8541ZM68.9419 32.7896C66.646 31.8093 63.8668 31.2531 60.6825 31.1354C54.5335 30.9083 47.6877 32.3823 42.371 35.0771C39.6221 36.4708 36.845 38.4177 34.3075 40.726C33.8554 39.0771 33.5283 37.5166 33.3356 36.0812C35.4866 33.9187 37.8793 32.1385 40.2679 30.9271C45.4752 28.2885 52.4439 27.3635 58.9096 28.4541C62.1898 29.0073 65.2231 30.0812 67.6835 31.5593C68.6335 32.1302 69.4971 32.7583 70.2762 33.4396C69.8564 33.2073 69.4116 32.9906 68.9408 32.7896H68.9419ZM37.8179 26.0927C44.1866 22.8646 51.4325 22.3094 58.2189 24.5302C62.8023 26.0302 66.8044 28.676 69.9158 32.1979C69.3222 31.741 68.7028 31.3188 68.0606 30.9333C65.4866 29.3875 62.4491 28.3104 59.0325 27.7343C52.4179 26.6187 45.2804 27.5687 39.9398 30.276C37.6346 31.4448 35.3273 33.1271 33.2293 35.1614C32.8616 31.4646 33.4564 28.9177 34.9585 27.7708L34.9783 27.7562C35.8856 27.1479 36.8408 26.5875 37.8189 26.0927H37.8179ZM41.5887 75.3448C34.8023 73.1239 29.2877 68.3937 26.0596 62.025L26.0471 62L26.0366 61.9802C26.02 61.9489 26.0044 61.9177 25.9866 61.8802C23.1023 56.1062 22.4044 49.4885 24.021 43.2458C25.0706 39.1912 27.056 35.4391 29.8179 32.2906C29.3918 33.0146 29.0033 33.7833 28.6564 34.5989C27.4846 37.3552 26.8023 40.6291 26.6825 44.0687V44.0875C26.6689 44.4666 26.6627 44.8583 26.6627 45.2531C26.6658 46.7875 26.7773 48.3469 26.9929 49.8875C27.0794 50.5146 27.1866 51.151 27.3096 51.7781C27.4552 52.5188 27.6261 53.2543 27.8221 53.9833C28.0189 54.7166 28.2398 55.4364 28.4762 56.1229C28.6866 56.7333 28.9158 57.3364 29.1575 57.9135C29.4689 58.6593 29.8127 59.3896 30.1773 60.0844C30.5179 60.7333 30.8835 61.3604 31.2616 61.9458C31.2804 61.975 31.2981 62.0041 31.3169 62.0323L31.346 62.0771C31.7564 62.7052 32.2137 63.3344 32.7054 63.9468C33.0898 64.4271 33.5012 64.9052 33.9283 65.3687L34.0012 65.4468C34.5241 66.0093 35.0804 66.5614 35.6554 67.0896C36.2023 67.5927 36.7835 68.0906 37.3835 68.5677C37.9533 69.0219 38.5543 69.4687 39.171 69.8958C40.5544 70.8552 42.0066 71.7113 43.5158 72.4573C43.9694 72.6819 44.4282 72.8959 44.8918 73.0989C48.6012 74.726 52.2554 75.5385 55.6252 75.5385C56.4731 75.5385 57.3033 75.4864 58.1116 75.3833C52.7679 77.1198 47.0304 77.126 41.5877 75.3448H41.5887ZM75.2866 58.3229C73.3554 64.1698 69.5554 69.0687 64.4533 72.3656L64.4491 72.3583C64.4429 72.3625 64.4356 72.3666 64.4283 72.3708L64.3929 72.3927C64.3773 72.4041 64.3606 72.4135 64.3408 72.425C62.6762 73.4375 59.9179 72.9229 56.5325 70.9844C57.7096 70.5885 58.8293 70.125 59.8689 69.5979C65.2106 66.8906 70.1981 61.6937 73.2085 55.6979C74.7637 52.6 75.6918 49.5135 75.9648 46.5229C76.0346 45.7625 76.0585 45.0166 76.0408 44.2875C77.046 48.9021 76.8054 53.7208 75.2856 58.3218L75.2866 58.3229Z" fill="#0B301A"/>
</svg>

<svg xmlns="http://www.w3.org/2000/svg" width="100" height="100" fill="none" viewBox="0 0 100 100"><path fill="#0b301a" d="m74.49 37.707-.005-.011.004-.032-.065-.09-.016-.032-.008-.018c-.002-.006 0 0 0-.001l-.006-.012-.074-.142v-.005l-.004-.008c-3.327-6.458-8.954-11.255-15.866-13.516-6.972-2.282-14.414-1.712-20.957 1.604-.94.476-1.858 1.01-2.737 1.59l-.003-.006-.074.05-.05.031-.046.033q-.004.001-.007.004-.003.001-.007.005h-.002l-.002.002a16 16 0 0 0-.35.245l-.03.02q-.003.002-.004.003h-.002A27.45 27.45 0 0 0 23.32 43.064 27.43 27.43 0 0 0 25.337 62.2q.026.057.056.114l.019.04.326-.165-.325.164c2.404 4.745 6.044 8.602 10.523 11.236a.36.36 0 0 0-.055.154c-.254 2.433 1.518 4.42 3.114 5.383 2.37 1.43 5.611 1.767 9.632.998.23-.044.518-.117.853-.2 1.24-.31 3.314-.83 4.274-.25.254.153.414.377.488.685.07.292.019.647-.147 1.001-.206.44-.51.857-.832 1.142-2.28 2.02-5.124 3.23-8.454 3.594-2.942.32-6.165-.048-9.32-1.066-5.217-1.684-8.762-4.084-10.252-6.941-2.552-4.863-2.808-9.762-2.995-13.343-.134-2.25-.25-4.194-.775-5.814-.597-1.842-1.654-3.004-3.326-3.657-1.77-.796-4.066-.752-6.304.122-3.983 1.598-6.498 5.546-6.522 5.585a.365.365 0 1 0 .62.382c.024-.037 2.408-3.78 6.17-5.289 2.058-.803 4.151-.851 5.745-.131l.018.007c3.193 1.24 3.383 4.428 3.647 8.839.19 3.643.45 8.635 3.077 13.637 1.603 3.073 5.195 5.528 10.675 7.298 2.487.803 5.019 1.214 7.433 1.214q1.114 0 2.189-.117c3.483-.38 6.463-1.65 8.858-3.773.395-.35.763-.852 1.008-1.378.167-.356.337-.902.195-1.482a1.76 1.76 0 0 0-.82-1.138c-1.22-.737-3.391-.194-4.828.167-.324.081-.604.15-.812.191-4.782.914-7.598.012-9.119-.906-2.044-1.233-2.857-3.138-2.776-4.538a27.7 27.7 0 0 0 4.772 2.073 27.5 27.5 0 0 0 8.57 1.376c4.255 0 8.482-1.002 12.387-2.982 6.517-3.303 11.369-8.942 13.66-15.88 2.286-6.923 1.757-14.325-1.49-20.845zm.75 8.75c-.262 2.859-1.189 5.94-2.682 8.915-2.944 5.861-7.81 10.937-13.018 13.577a24.7 24.7 0 0 1-3.837 1.538c-1.432-.89-2.93-1.996-4.458-3.29 2.225-.638 4.306-1.442 6.192-2.397 5.337-2.705 10.584-7.374 14.037-12.487 1.789-2.65 2.977-5.228 3.532-7.664q.162-.714.25-1.399.135 1.549-.015 3.207zM27.412 44.13v-.019c.115-3.356.778-6.546 1.917-9.227q.785-1.845 1.85-3.359c-.885 2.087-1.35 4.66-1.349 7.603q-.001.235.005.47a34 34 0 0 0 .55 5.436 40.084 40.084 0 0 0 1.169 4.778 40 40 0 0 0 1.926 5.02c.257.551.521 1.089.789 1.597a33 33 0 0 0 1.582 2.7c.236.36.485.723.74 1.08.348.483.718.97 1.1 1.45a38 38 0 0 0 2.667 2.98 41.402 41.402 0 0 0 5.29 4.495 35 35 0 0 0 5.696 3.322c2.856 1.303 5.537 1.97 7.913 2-4.171.845-9.06.171-14.068-2.026a33.43 33.43 0 0 1-7.347-4.433 31 31 0 0 1-1.689-1.445 29 29 0 0 1-1.683-1.678l-.047-.05c-.4-.436-.784-.884-1.145-1.334a23 23 0 0 1-1.315-1.81l-.03-.047-.052-.08c-.368-.572-.723-1.18-1.054-1.81a27 27 0 0 1-.992-2.112 29 29 0 0 1-.665-1.747 32 32 0 0 1-.64-2.09 33 33 0 0 1-.811-4.008 33.3 33.3 0 0 1-.305-5.657zm24.233 27.663a34.355 34.355 0 0 1-5.575-3.252 40.551 40.551 0 0 1-5.195-4.412 37 37 0 0 1-2.615-2.925 34 34 0 0 1-1.076-1.419c-.25-.347-.493-.703-.723-1.054a32 32 0 0 1-1.547-2.64 35 35 0 0 1-.773-1.564 39 39 0 0 1-1.892-4.928 40 40 0 0 1-1.147-4.693 33 33 0 0 1-.542-5.777c-.002-3.737.765-6.84 2.196-9.045-.412 1.541-.473 3.527-.166 5.908q.007.06.015.118l.008.056c.22 1.64.608 3.433 1.155 5.33q.084.297.175.594a53 53 0 0 0 1.519 4.327q.166.422.358.88a58 58 0 0 0 2.752 5.7 50 50 0 0 0 1.878 3.122 49 49 0 0 0 2.11 2.968 57 57 0 0 0 4.122 4.803 54 54 0 0 0 4.022 3.803c1.63 1.386 3.232 2.564 4.756 3.5q.072.046.142.088c2.122 1.288 4.017 2.059 5.63 2.302-2.694.451-5.985-.149-9.585-1.791zm22.65-27.307c-.528 2.316-1.713 4.88-3.426 7.418-3.386 5.016-8.531 9.593-13.763 12.245-1.974 1-4.168 1.832-6.523 2.476a54 54 0 0 1-3.375-3.239q-.122-.127-.242-.254c2.82-.897 5.57-2.01 7.986-3.234 5.31-2.692 10.809-6.802 14.708-10.996 2.69-2.893 4.362-5.534 4.946-7.749.06 1.04-.042 2.154-.311 3.334M71.6 35.213c-2.116-.835-5.21-1.052-9.102-.605-5.707.657-12.302 2.664-17.643 5.37-2.972 1.507-6.04 3.478-8.896 5.715a52 52 0 0 1-1.428-4.182c2.562-2.373 5.383-4.37 8.171-5.784 5.212-2.642 11.923-4.084 17.954-3.863 3.052.112 5.818.664 8 1.595q1.713.733 2.945 1.752zm-26.414 5.416c5.267-2.67 11.77-4.65 17.397-5.296 5.029-.578 8.717-.007 10.432 1.568-.518-.024-1.176.037-1.989.183-1.623.291-3.788.902-6.438 1.815-5.12 1.764-11.35 4.427-16.67 7.123a145 145 0 0 0-9.439 5.26 58 58 0 0 1-2.24-4.881c2.87-2.263 5.958-4.255 8.948-5.772zm3.062 6.042c5.29-2.681 11.488-5.33 16.577-7.084 2.577-.888 4.767-1.506 6.33-1.786 2.08-.374 2.501-.066 2.579.03v.008l.023.043c.03.13.007.657-1.502 2.092-1.15 1.095-2.942 2.495-5.183 4.049-4.425 3.069-10.224 6.5-15.513 9.181a144 144 0 0 1-9.287 4.278 49 49 0 0 1-1.216-1.762 49 49 0 0 1-2.24-3.793 145 145 0 0 1 9.431-5.255zm3.64 7.183c5.318-2.695 11.15-6.146 15.6-9.232 2.303-1.597 4.076-2.983 5.27-4.12.598-.569 1.036-1.064 1.323-1.495.259 2.326-1.483 5.663-4.956 9.397-3.844 4.134-9.265 8.188-14.503 10.842-2.475 1.254-5.308 2.39-8.207 3.292a56 56 0 0 1-3.7-4.452c3.163-1.33 6.326-2.79 9.174-4.233zM68.943 32.79c-2.296-.98-5.075-1.537-8.26-1.655-6.149-.227-12.994 1.247-18.311 3.942-2.749 1.394-5.526 3.34-8.064 5.649-.452-1.649-.779-3.21-.971-4.645 2.15-2.162 4.543-3.943 6.932-5.154 5.207-2.639 12.176-3.564 18.642-2.473 3.28.553 6.313 1.627 8.773 3.105q1.425.858 2.593 1.88-.63-.348-1.335-.65m-31.124-6.697c6.369-3.228 13.615-3.784 20.4-1.563 4.584 1.5 8.586 4.146 11.698 7.668a20 20 0 0 0-1.855-1.265c-2.574-1.546-5.612-2.623-9.029-3.199-6.614-1.115-13.752-.165-19.092 2.542-2.305 1.169-4.613 2.851-6.71 4.885-.368-3.696.226-6.243 1.729-7.39l.02-.015a27 27 0 0 1 2.84-1.663zm3.77 49.252c-6.786-2.221-12.3-6.951-15.528-13.32L26.047 62l-.01-.02-.05-.1a26.7 26.7 0 0 1-1.966-18.634 26.8 26.8 0 0 1 5.797-10.955 20 20 0 0 0-1.162 2.308c-1.171 2.756-1.854 6.03-1.973 9.47v.018q-.02.572-.02 1.166c.003 1.535.114 3.094.33 4.635a34 34 0 0 0 .83 4.095c.196.734.417 1.453.653 2.14.21.61.44 1.213.681 1.79a28 28 0 0 0 1.02 2.171c.34.65.707 1.276 1.085 1.862l.055.086.029.045c.41.628.868 1.257 1.36 1.87.384.48.795.958 1.222 1.422l.073.078c.523.562 1.08 1.114 1.654 1.643a33.251 33.251 0 0 0 3.516 2.806 34.3 34.3 0 0 0 5.72 3.203c3.71 1.627 7.364 2.44 10.734 2.44q1.273 0 2.487-.156c-5.344 1.737-11.082 1.743-16.524-.038m33.699-17.022c-1.932 5.847-5.732 10.746-10.834 14.043l-.004-.008-.02.013-.036.022-.052.032c-1.665 1.013-4.423.498-7.808-1.44a25 25 0 0 0 3.336-1.387c5.342-2.707 10.33-7.904 13.34-13.9 1.555-3.098 2.483-6.184 2.756-9.175q.103-1.14.076-2.236c1.005 4.615.764 9.434-.755 14.035"/></svg>
